src/img/analyst.svg

<svg width="32" height="32" fill="none" xmlns="http://www.w3.org/2000/svg"><g clip-path="url(#clip0_464_5922)"><path fill-rule="evenodd" clip-rule="evenodd" d="M20.7 2.3l7 7c.2.2.3.4.3.7v18c0 1.1-.9 2-2 2H10c-1.1 0-2-.9-2-2v-4H6c-1.1 0-2-.9-2-2v-6c0-1.1.9-2 2-2h2V4c0-1.1.9-2 2-2h10c.3 0 .5.1.7.3zm4.9 7.7L20 4.4V10h5.6zm-10 6H6v6h9.61L19 19l-3.4-3zM10 28h16V12h-6c-1.1 0-2-.9-2-2V4h-8v10h5.61c.47 0 .94.17 1.3.48l3.4 3.01c.43.37.68.92.68 1.51s-.25 1.14-.69 1.52l-3.38 2.99c-.37.32-.83.49-1.31.49H10v4zm6-9a1 1 0 11-2 0 1 1 0 012 0z" fill="url(#paint0_linear_464_5922)"/></g><defs><linearGradient id="paint0_linear_464_5922" x1="4" y1="2.483" x2="28" y2="30.483" gradientUnits="userSpaceOnUse"><stop stop-color="#F67E7D"/><stop offset="1" stop-color="#FFA6A6"/></linearGradient><clipPath id="clip0_464_5922"><path fill="#fff" d="M0 0h32v32H0z"/></clipPath></defs></svg>

<svg width="32" height="32" viewBox="0 0 32 32" fill="none" xmlns="http://www.w3.org/2000/svg">
<g clip-path="url(#clip0_464_5922)">
<path fill-rule="evenodd" clip-rule="evenodd" d="M20.7 2.3L27.7 9.3C27.9 9.5 28 9.7 28 10V28C28 29.1 27.1 30 26 30H10C8.9 30 8 29.1 8 28V24H6C4.9 24 4 23.1 4 22V16C4 14.9 4.9 14 6 14H8V4C8 2.9 8.9 2 10 2H20C20.3 2 20.5 2.1 20.7 2.3ZM25.6 10L20 4.4V10H25.6ZM15.6 16H6V22H15.61L19 19L15.6 16ZM10 28H26V12H20C18.9 12 18 11.1 18 10V4H10V14H15.61C16.08 14 16.55 14.17 16.91 14.48L20.31 17.49C20.74 17.86 20.99 18.41 20.99 19C20.99 19.59 20.74 20.14 20.3 20.52L16.92 23.51C16.55 23.83 16.09 24 15.61 24H10V28ZM16 19C16 19.5523 15.5523 20 15 20C14.4477 20 14 19.5523 14 19C14 18.4477 14.4477 18 15 18C15.5523 18 16 18.4477 16 19Z" fill="url(#paint0_linear_464_5922)"/>
</g>
<defs>
<linearGradient id="paint0_linear_464_5922" x1="4" y1="2.48291" x2="28" y2="30.4829" gradientUnits="userSpaceOnUse">
<stop stop-color="#F67E7D"/>
<stop offset="1" stop-color="#FFA6A6"/>
</linearGradient>
<clipPath id="clip0_464_5922">
<rect width="32" height="32" fill="white"/>
</clipPath>
</defs>
</svg>
